logos/sysdig.svg

<?xml version="1.0" encoding="UTF-8"?>
<svg width="512px" height="184px" viewBox="0 0 512 184" version="1.1" xmlns="http://www.w3.org/2000/svg" xmlns:xlink="http://www.w3.org/1999/xlink" preserveAspectRatio="xMidYMid">
    <g>
        <path d="M218.574968,146.062947 C218.927881,151.959951 216.3632,157.654433 211.713285,161.298264 C206.762371,164.787682 200.780716,166.508391 194.732432,166.183052 C184.996289,166.221991 175.545974,162.894338 167.983338,156.762406 L175.542657,145.131728 C182.364928,150.094672 188.916722,152.575848 195.198042,152.575255 C200.159208,152.575255 202.64031,151.024632 202.641347,147.923384 L202.641347,147.690468 C202.641347,145.986419 201.361866,144.552031 198.802903,143.387304 C197.872721,143.000889 194.849038,142.031739 189.731854,140.479856 C177.325678,136.836472 171.122886,130.595009 171.123479,121.755468 L171.123479,121.522774 C170.917565,115.843952 173.421033,110.404867 177.868704,106.867968 C182.449202,103.325866 188.132672,101.513647 193.918116,101.750487 C202.225154,101.729894 210.340441,104.246273 217.179251,108.961988 L210.43336,121.173178 C203.842079,117.297767 198.220688,115.359469 193.569187,115.358284 C189.226462,115.358284 187.05547,116.792672 187.056211,119.661448 L187.056211,119.894364 C187.056211,121.446395 188.335692,122.842112 190.894655,124.081515 C191.901438,124.546161 194.847853,125.631472 199.7339,127.337447 C204.249754,128.677906 208.527304,130.718662 212.410477,133.385258 C216.349921,136.29841 218.64473,140.930966 218.57519,145.830031 L218.574968,146.062947 L218.574968,146.062947 Z M261.563496,166.531759 C259.159514,172.966725 256.484612,177.463986 253.53879,180.023542 C250.005559,182.803321 245.584414,184.208025 241.094684,183.977332 C235.567772,183.992183 230.140728,182.504712 225.393757,179.673946 L231.325554,166.881355 C233.577541,168.36518 236.190399,169.209195 238.884873,169.323193 C241.586921,169.382874 244.042883,167.761121 245.049142,165.252722 L220.625205,102.681706 L239.35026,102.681706 L253.538568,145.131728 L267.146587,102.681706 L285.522045,102.681706 L261.563496,166.531759 L261.563496,166.531759 Z M335.324918,146.062947 C335.67783,151.959951 333.113149,157.654433 328.463235,161.298264 C323.51232,164.787682 317.530666,166.508391 311.482382,166.183052 C301.746163,166.222654 292.29576,162.894386 284.733065,156.762406 L292.292384,145.131728 C299.114803,150.094672 305.666672,152.575848 311.947991,152.575255 C316.909009,152.575255 319.390037,151.024632 319.391074,147.923384 L319.391074,147.690468 C319.391074,145.986419 318.111667,144.552031 315.552853,143.387304 C314.622523,143.000889 311.59884,142.031739 306.481803,140.479856 C294.075627,136.836472 287.872836,130.595009 287.873429,121.755468 L287.873429,121.522774 C287.667461,115.84399 290.170844,110.404913 294.618431,106.867968 C299.198988,103.325816 304.882547,101.513594 310.668065,101.750487 C318.975104,101.729885 327.09039,104.246273 333.929201,108.961988 L327.183309,121.173178 C320.592028,117.297767 314.970711,115.359469 310.319358,115.358284 C305.976634,115.358284 303.805568,116.792672 303.80616,119.661448 L303.80616,119.894364 C303.80616,121.446395 305.085716,122.842112 307.644827,124.081515 C308.651462,124.546161 311.597728,125.631472 316.483627,127.337447 C320.999636,128.677862 325.277339,130.718621 329.160649,133.385258 C333.099925,136.298505 335.394561,140.931045 335.324918,145.830031 L335.324918,146.062947 L335.324918,146.062947 Z M389.266491,165.020028 L389.266491,159.55384 C383.858937,164.132133 376.922082,166.49977 369.843799,166.183052 C362.421163,166.322926 355.284039,163.324477 350.188415,157.92543 C344.37352,151.877767 341.466072,143.89151 341.466072,133.966658 L341.466072,133.733965 C341.466072,123.810002 344.334849,115.824115 350.072401,109.776305 C355.205436,104.361588 362.384373,101.36327 369.843799,101.518683 C376.781219,101.269181 383.607511,103.312882 389.266491,107.333578 L389.266491,80.1186517 L406.944758,80.1186517 L406.944758,165.020028 L389.266491,165.020028 L389.266491,165.020028 Z M389.499184,133.734187 C389.671533,129.173715 388.090179,124.720505 385.080229,121.290081 C382.396052,118.193772 378.477005,116.447189 374.37988,116.521307 C370.305866,116.438778 366.39854,118.137555 363.680198,121.173178 C360.588755,124.608796 358.961199,129.115855 359.14434,133.733965 L359.14434,133.966658 C358.974553,138.547962 360.60243,143.014133 363.68042,146.411654 C366.409229,149.446924 370.298748,151.180415 374.380324,151.180415 C378.461901,151.180415 382.351419,149.446924 385.080229,146.411654 C388.090399,142.981095 389.671773,138.52759 389.499184,133.966881 L389.499184,133.734187 L389.499184,133.734187 Z M417.645107,95.8198013 L417.645107,80.1186517 L436.253481,80.1186517 L436.253481,95.8198013 L417.645107,95.8198013 Z M418.109605,165.020028 L418.109605,102.681706 L435.787872,102.681706 L435.787872,165.020028 L418.109605,165.020028 Z M511.995576,150.947512 C511.995576,162.501589 509.088129,170.914117 503.273234,176.185098 C497.690366,181.30243 489.006176,183.861097 477.220665,183.861097 C467.63618,183.99791 458.166833,181.760392 449.657254,177.348121 L455.704843,162.926897 C462.103877,166.632289 469.361794,168.597106 476.756167,168.625779 C488.618576,168.625779 494.549929,163.740769 494.550225,153.97075 L494.550225,153.273558 C488.736712,157.770427 481.544156,160.113071 474.197426,159.902547 C467.005045,160.093711 460.041236,157.367107 454.890748,152.343229 C449.204603,146.663293 446.166125,138.855893 446.516891,130.826517 L446.516891,130.593824 C446.170645,122.542866 449.256418,114.723021 455.007206,109.078002 C460.120225,104.069616 467.042065,101.342967 474.197204,101.518683 C481.342438,101.340759 488.368606,103.371386 494.317309,107.333578 L494.317309,102.681706 L511.995576,102.681706 L511.995576,150.947512 L511.995576,150.947512 Z M494.550225,130.593824 C494.659351,126.663788 493.044937,122.882452 490.131047,120.243071 C483.94134,114.815812 474.68803,114.815812 468.498322,120.243071 C465.645781,122.916459 464.078617,126.686087 464.195158,130.593824 L464.195158,130.826517 C464.06214,134.771366 465.629257,138.583455 468.498322,141.294173 C471.454687,143.96487 475.332885,145.382737 479.314685,145.24863 C483.3169,145.377633 487.20685,143.913747 490.131047,141.178159 C493.045376,138.538716 494.659853,134.756906 494.550225,130.826517 L494.550225,130.593824 L494.550225,130.593824 Z" fill="#55565B"></path>
        <path d="M115.376875,57.2519877 C117.533621,57.2575328 119.52179,58.4191292 120.585633,60.2952475 L141.237133,96.0638295 C155.958169,121.561223 147.889014,156.879531 122.468518,178.215999 C121.931408,178.667066 121.319316,179.020389 120.660086,179.259898 C112.484725,182.241099 103.851091,183.769995 95.1491351,183.777531 C72.2533756,183.777531 50.8831258,173.063625 40.1303264,154.438804 L15.5537057,111.871658 C14.7572861,110.49238 14.5414166,108.853212 14.9535882,107.314768 C15.3657598,105.776325 16.3722079,104.464634 17.7515155,103.668265 L34.4916741,94.0031467 C36.3506211,92.9164592 38.6490833,92.9081635 40.515826,93.9814041 C42.3825687,95.0546446 43.5318664,97.0451501 43.5280764,99.1984172 C43.5242865,101.351684 42.3679891,103.338132 40.49748,104.404794 L28.9581452,111.066676 L50.5317518,148.432998 C62.2266602,168.689119 90.0320988,177.135652 115.553273,168.327522 C135.940743,150.630808 142.529727,122.325756 130.835708,102.069635 L110.184208,66.3010534 C109.091218,64.4417639 109.079151,62.1391622 110.152593,60.2685194 C111.226036,58.3978765 113.22013,57.2464822 115.376875,57.2519877 Z M52.2721753,113.305602 C52.3336057,113.415977 55.2657969,118.639022 58.4284536,124.242579 L58.8089096,124.91653 L58.8089096,124.91653 L59.5724037,126.268121 C61.0987788,128.968955 62.6052543,131.626624 63.7998345,133.71779 L64.0918128,134.228476 C64.4244791,134.809801 64.7285426,135.339224 64.9967584,135.80376 C73.4544034,150.453454 88.9439729,156.049657 106.432663,150.763268 C109.607931,149.804268 112.959417,151.600909 113.918417,154.776177 C114.877417,157.951445 113.080777,161.302931 109.905509,162.261931 C104.702301,163.866026 99.2915381,164.696481 93.8467623,164.726661 C77.5383126,164.908176 62.4530311,156.100863 54.594444,141.809566 C53.3340367,139.626589 51.348107,136.12914 49.3117394,132.527309 L48.9171552,131.829202 C48.8513466,131.712742 48.7855309,131.596255 48.7197306,131.47978 L48.1285588,130.432967 L48.1285588,130.432967 L47.7367219,129.738737 C44.7430995,124.433725 42.0220197,119.58648 41.7791838,119.150722 C40.1650984,116.253163 41.2055598,112.595752 44.1031194,110.981666 C47.0006789,109.367581 50.6580898,110.408042 52.2721753,113.305602 Z M11.1838669,2.96306006 L82.13763,125.858832 C84.072965,129.209664 89.5591552,134.959884 96.4615092,132.732516 C99.6185499,131.71509 103.002624,133.44959 104.02005,136.60663 C105.037476,139.763671 103.302976,143.147745 100.145935,144.165171 C97.9497863,144.880969 95.6549997,145.24806 93.3451487,145.253075 C83.859607,145.253075 75.8193436,138.937233 71.7359824,131.86486 L0.782441476,8.96886589 C-0.844585779,6.09955665 0.147063028,2.4550361 3.00359028,0.805671002 C5.86011754,-0.843694098 9.51226435,0.11948868 11.1838669,2.96306006 Z M63.2716699,38.3407079 L80.1794035,67.6260955 L90.9330919,61.4169328 C93.8029009,59.784654 97.4521496,60.774993 99.1030746,63.6341161 C100.754,66.4932392 99.7874359,70.148857 96.93912,71.8183582 L80.9837188,81.030535 C80.0706825,81.5577006 79.0350002,81.835517 77.9807047,81.835517 C75.8353915,81.835517 73.8528868,80.6906759 72.7798809,78.8327252 L52.8702445,44.3465138 C51.2432173,41.4772045 52.2348661,37.832684 55.0913933,36.1833189 C57.9479206,34.5339538 61.6000674,35.4971366 63.2716699,38.3407079 Z" fill="#00ABC7"></path>
    </g>
</svg>

<svg width="512" height="184" xmlns="http://www.w3.org/2000/svg" preserveAspectRatio="xMidYMid">
	<path d="M218.575 146.063a17.99 17.99 0 0 1-6.862 15.235 26.962 26.962 0 0 1-16.98 4.885 42.203 42.203 0 0 1-26.75-9.42l7.56-11.631c6.822 4.963 13.374 7.444 19.655 7.443 4.961 0 7.442-1.55 7.443-4.652v-.233c0-1.704-1.28-3.138-3.838-4.303-.93-.386-3.954-1.355-9.071-2.907-12.406-3.644-18.61-9.885-18.609-18.725v-.232a17.895 17.895 0 0 1 6.746-14.655 24.592 24.592 0 0 1 16.05-5.118 40.798 40.798 0 0 1 23.26 7.212l-6.746 12.211c-6.59-3.875-12.212-5.814-16.864-5.815-4.343 0-6.514 1.435-6.513 4.303v.233c0 1.552 1.28 2.948 3.839 4.188 1.006.464 3.953 1.55 8.839 3.255a45.029 45.029 0 0 1 12.676 6.048 15.21 15.21 0 0 1 6.165 12.445v.233Zm42.988 20.469c-2.403 6.435-5.078 10.932-8.024 13.492a18.583 18.583 0 0 1-12.444 3.953 30.495 30.495 0 0 1-15.701-4.303l5.932-12.793a14.883 14.883 0 0 0 7.559 2.442 6.487 6.487 0 0 0 6.164-4.07l-24.424-62.571h18.725l14.189 42.45 13.608-42.45h18.375l-23.959 63.85Zm73.762-20.47a17.99 17.99 0 0 1-6.862 15.236 26.962 26.962 0 0 1-16.98 4.885 42.2 42.2 0 0 1-26.75-9.42l7.56-11.631c6.822 4.963 13.374 7.444 19.655 7.443 4.961 0 7.442-1.55 7.443-4.652v-.233c0-1.704-1.28-3.138-3.838-4.303-.93-.386-3.954-1.355-9.071-2.907-12.406-3.644-18.61-9.885-18.609-18.725v-.232a17.895 17.895 0 0 1 6.745-14.655 24.592 24.592 0 0 1 16.05-5.118 40.798 40.798 0 0 1 23.261 7.212l-6.746 12.211c-6.591-3.875-12.212-5.814-16.864-5.815-4.342 0-6.513 1.435-6.513 4.303v.233c0 1.552 1.28 2.948 3.839 4.188 1.006.464 3.953 1.55 8.839 3.255a45.029 45.029 0 0 1 12.677 6.048 15.21 15.21 0 0 1 6.164 12.445v.233Zm53.941 18.958v-5.466a28.114 28.114 0 0 1-19.422 6.63 26.345 26.345 0 0 1-19.656-8.259c-5.814-6.047-8.722-14.033-8.722-23.958v-.233c0-9.924 2.869-17.91 8.606-23.958a26.483 26.483 0 0 1 19.772-8.257 31.575 31.575 0 0 1 19.422 5.815V80.119h17.679v84.901h-17.679Zm.233-31.286a17.846 17.846 0 0 0-4.419-12.444 13.83 13.83 0 0 0-10.7-4.769 13.983 13.983 0 0 0-10.7 4.652 17.728 17.728 0 0 0-4.536 12.561v.233a17.567 17.567 0 0 0 4.536 12.445 14.388 14.388 0 0 0 21.4 0 17.845 17.845 0 0 0 4.42-12.445v-.233Zm28.146-37.914V80.119h18.608v15.7h-18.608Zm.465 69.2v-62.338h17.678v62.338H418.11Zm93.886-14.072c0 11.554-2.908 19.966-8.723 25.237-5.583 5.117-14.267 7.676-26.052 7.676a58.08 58.08 0 0 1-27.564-6.513l6.048-14.421a42.337 42.337 0 0 0 21.051 5.699c11.863 0 17.794-4.885 17.794-14.655v-.697a31.777 31.777 0 0 1-20.353 6.629 26.636 26.636 0 0 1-19.306-7.56 28.646 28.646 0 0 1-8.374-21.516v-.233a28.437 28.437 0 0 1 8.49-21.516 26.494 26.494 0 0 1 19.19-7.56 34.735 34.735 0 0 1 20.12 5.816v-4.652h17.679v48.266Zm-17.446-20.354a13.462 13.462 0 0 0-4.419-10.35c-6.19-5.428-15.443-5.428-21.633 0a13.63 13.63 0 0 0-4.303 10.35v.233a13.763 13.763 0 0 0 4.303 10.467 15.364 15.364 0 0 0 10.817 3.955 15.12 15.12 0 0 0 10.816-4.07 13.46 13.46 0 0 0 4.42-10.352v-.233Z" fill="#55565B"/>
	<path d="M115.377 57.252a6.006 6.006 0 0 1 5.209 3.043l20.651 35.769c14.721 25.497 6.652 60.816-18.768 82.152a5.996 5.996 0 0 1-1.809 1.044 74.654 74.654 0 0 1-25.51 4.518c-22.897 0-44.267-10.714-55.02-29.34l-24.576-42.566a6.005 6.005 0 0 1 2.198-8.204l16.74-9.665a6.006 6.006 0 1 1 6.005 10.402l-11.539 6.662 21.574 37.366c11.695 20.256 39.5 28.703 65.021 19.895 20.388-17.697 26.977-46.002 15.283-66.258L110.184 66.3a6.006 6.006 0 0 1 5.193-9.049Zm-63.105 56.054c.062.11 2.994 5.333 6.156 10.937l.38.674.764 1.351c1.527 2.701 3.033 5.359 4.228 7.45l.292.51c.332.582.637 1.111.905 1.576 8.457 14.65 23.947 20.246 41.436 14.96a6.006 6.006 0 0 1 3.473 11.498 55.554 55.554 0 0 1-16.06 2.465 44.234 44.234 0 0 1-39.252-22.917c-1.26-2.183-3.246-5.68-5.282-9.283l-.395-.698-.197-.35-.591-1.046-.392-.694a4515.16 4515.16 0 0 1-5.958-10.588 6.006 6.006 0 0 1 10.493-5.845ZM11.184 2.963 82.138 125.86c1.935 3.35 7.421 9.1 14.324 6.874a6.006 6.006 0 1 1 3.684 11.432 22.1 22.1 0 0 1-6.8 1.088c-9.486 0-17.527-6.316-21.61-13.388L.782 8.969a6.006 6.006 0 0 1 10.402-6.006Zm52.088 35.378 16.907 29.285 10.754-6.21a6.006 6.006 0 0 1 6.006 10.402l-15.955 9.213a6.006 6.006 0 0 1-8.204-2.198L52.87 44.347a6.006 6.006 0 0 1 10.402-6.006Z" fill="#00ABC7"/>
</svg>
